svg/u1f648.svg

<svg viewBox="0 0 128 128" xmlns="http://www.w3.org/2000/svg">
  <path d="M107.35,61.36c0,23.37-10.81,43.95-42.76,43.68c-35.15-0.3-43.32-17.15-43.52-42 c-0.19-23.37,13.34-45.35,42.46-45.35C90.87,17.68,107.35,37.99,107.35,61.36z" fill="#B6885A"/>
  <path d="M64.4,44.12c7.46-0.23,15.54-10.47,24.5-2.28c8.22,7.51,1.72,14.46,1.93,21.56 c0.17,5.88,5.97,10.14,1.32,19.07c-3.75,7.2-13.56,13.51-26.34,13.28c-16.44-0.3-27.35-6.38-30.09-14.5 c-2.67-7.91,3.07-12.28,2.76-18.36c-0.3-6.09-6.78-15.39,1.65-21.51C51.59,33.06,56.48,44.36,64.4,44.12z" fill="#FFCD88"/>
  <path d="M64.29,66.49c3.88,0.08,5.3,0.08,5.17,2.02c-0.08,1.22-2.59,3.65-5.02,3.69 c-2.05,0.04-5.1-2.02-5.29-3.8C58.94,66.38,60.48,66.41,64.29,66.49z" fill="#393531"/>
  <path d="M104.77,50.86c0,0,14.81,0.61,14.61,14s-12.83,14.76-15.47,14.66 C101.27,79.42,104.77,50.86,104.77,50.86z" fill="#B6885A"/>
  <path d="M23.05,51.21c0,0-13.8-0.41-14.3,13.09s12.38,15.42,15.62,15.83C27.61,80.53,23.05,51.21,23.05,51.21 z" fill="#B6885A"/>
  <path d="M63.52,75.03c16.59,0.2,19.42,2.79,19.28,5.53c-0.2,3.86-6.8,8.47-18.82,8.37 c-12.58-0.11-18.92-4.41-19.07-8.12C44.76,77.16,53.18,74.91,63.52,75.03z" fill="#FF6B17"/>
  <path d="M22.23,74.65c0.36-0.13-0.26-4.64-0.51-9.03c-0.23-4.13-0.09-8.15-0.2-8.32 c-0.41-0.61-8.12-0.3-8.12,7.91S21.42,74.95,22.23,74.65z" fill="#FFCD88"/>
  <path d="M105.42,56.89c0.54-0.36,8.81,0.91,8.62,9.23c-0.2,8.93-7.81,9.33-8.72,8.72 c-0.47-0.32,0.22-4.41,0.3-8.93C105.7,61.73,105.13,57.09,105.42,56.89z" fill="#FFCD88"/>
  <path d="M31.97,77.59l11.87-5.07l12.17-3.65c0,0,5.78-7.41,5.38-9.44c-0.41-2.03-2.13-8.72-5.17-9.94 c-3.04-1.22-6.58-0.72-9.09,0.72c-2.05,1.18-4.43,4.39-4.76,1.75c-0.14-1.11,4.45-5.36,4.45-5.36s1.14-1.69-1.29-2.4 s-6.96,1.74-8.08,2.35c-1.12,0.61-5.28,3.15-5.28,3.15L12.49,74.95c0,0-9.94,10.15-10.15,20.7s6.46,18.69,19.45,17.07 s22.45-20.01,22.45-20.01l-15.02-7c0,0-4.57,10.35-7.1,9.23s0.61-8.01,0.61-8.01L31.97,77.59z" fill="#B8885A"/>
  <path d="M99.64,86.72L87.47,99.3c0,0,6.73,15.63,20.73,15.33c14-0.3,20.44-14.7,16.28-25.86 c-4.16-11.16-16.01-23.66-16.01-23.66L94.06,49.39c0,0-7.05-7.41-11.41-6.19s3.91,8.01,3.91,8.01s-1.12,2.08-3.15,1.07 c-2.03-1.01-9.64-7.25-14.46,1.62c-4.26,7.85,1.78,11.72,1.78,11.72l11.36,6.39l12.99,5.38l7.61,7.41c0,0,3.86,8.12,3.65,8.83 c-0.2,0.71-2.54-0.61-4.16-3.04S99.64,86.72,99.64,86.72z" fill="#B8885A"/>
  <path d="M46.71,44.85c-0.49-0.4-0.1,1.94-2.16,3.12c-2,1.15-3.14,2.38-2.64,3.6 c1.03,2.51,0.88-0.29,2.74-1.43C46.33,49.11,48.65,46.44,46.71,44.85z" fill="#855B53"/>
  <path d="M56.02,49.79c0.56,1.01,5.28,3.35,3.93,9.21c-1.02,4.44-4.93,7.72-12.44,10.58 c-7.61,2.89-18.11,5.56-24.16,12.78c-4.72,5.63-6.16,12.21-2.74,14.27c2.24,1.35,0.19-2.85,1.86-6.89 c1.67-4.03,7.04-8.75,12.75-11.72c5.71-2.97,20.81-6.24,24.84-12.48c4.03-6.24,2.27-10.21,0.67-12.45 C58.68,50.2,55.3,48.49,56.02,49.79z" fill="#865B52"/>
  <path d="M81.03,44.54c-0.47,1.18-0.76,2.82,1.6,4.64c2.36,1.83,2.55,2.66,2.17,3.12 c-0.38,0.46-0.15,0.76,2.05-0.15c2.21-0.91-1.03-3.27-1.86-4.18c-0.84-0.91-3.18-2.59-2.47-4.03 C83.22,42.49,81.33,43.78,81.03,44.54z" fill="#865B52"/>
  <path d="M73.11,50.4c-0.5,0.73-6.44,6.9-2.43,13.29c2.87,4.58,7.61,5.5,12.4,6.87s10.26,4.05,13.35,5.97 c4.72,2.93,6.77,5.99,9.09,9.36c2.78,4.03,3.35,9.32-0.42,11.38c-1.61,0.88,0.02-3.28-0.23-5.02c-0.46-3.16-1.86-4.91-2.85-5.97 c-0.99-1.07-4.34-5.36-9.13-7.95c-4.79-2.59-12.1-4.67-14.23-5.4c-3.73-1.29-8.55-3.65-10.68-8.83c-2-4.86,0-9.79,2.23-12.38 C71.6,50.12,74.41,48.5,73.11,50.4z" fill="#865B52"/>
</svg>

<svg viewBox="0 0 128 128" xmlns="http://www.w3.org/2000/svg">
  <defs/>
  <path d="M107.35,61.36 C107.35,84.73 96.54,105.31 64.59,105.04 C29.44,104.74 21.27,87.89 21.07,63.04 C20.88,39.67 34.41,17.69 63.53,17.69 C90.87,17.68 107.35,37.99 107.35,61.36 Z" fill="#B6885A"/>
  <path d="M64.4,44.12 C71.86,43.89 79.94,33.65 88.9,41.84 C97.12,49.35 90.62,56.3 90.83,63.4 C91,69.28 96.8,73.54 92.15,82.47 C88.4,89.67 78.59,95.98 65.81,95.75 C49.37,95.45 38.46,89.37 35.72,81.25 C33.05,73.34 38.79,68.97 38.48,62.89 C38.18,56.8 31.7,47.5 40.13,41.38 C51.59,33.06 56.48,44.36 64.4,44.12 Z" fill="#FFCD88"/>
  <path d="M64.29,66.49 C68.17,66.57 69.59,66.57 69.46,68.51 C69.38,69.73 66.87,72.16 64.44,72.2 C62.39,72.24 59.34,70.18 59.15,68.4 C58.94,66.38 60.48,66.41 64.29,66.49 Z" fill="#393531"/>
  <path d="M104.77,50.86 C104.77,50.86 119.58,51.47 119.38,64.86 C119.18,78.25 106.55,79.62 103.91,79.52 C101.27,79.42 104.77,50.86 104.77,50.86 Z" fill="#B6885A"/>
  <path d="M23.05,51.21 C23.05,51.21 9.25,50.8 8.75,64.3 C8.25,77.8 21.13,79.72 24.37,80.13 C27.61,80.53 23.05,51.21 23.05,51.21 Z" fill="#B6885A"/>
  <path d="M63.52,75.03 C80.11,75.23 82.94,77.82 82.8,80.56 C82.6,84.42 76,89.03 63.98,88.93 C51.4,88.82 45.06,84.52 44.91,80.81 C44.76,77.16 53.18,74.91 63.52,75.03 Z" fill="#FF6B17"/>
  <path d="M22.23,74.65 C22.59,74.52 21.97,70.01 21.72,65.62 C21.49,61.49 21.63,57.47 21.52,57.3 C21.11,56.69 13.4,57 13.4,65.21 C13.4,73.42 21.42,74.95 22.23,74.65 Z" fill="#FFCD88"/>
  <path d="M105.42,56.89 C105.96,56.53 114.23,57.8 114.04,66.12 C113.84,75.05 106.23,75.45 105.32,74.84 C104.85,74.52 105.54,70.43 105.62,65.91 C105.7,61.73 105.13,57.09 105.42,56.89 Z" fill="#FFCD88"/>
  <path d="M31.97,77.59 L43.84,72.52 L56.01,68.87 C56.01,68.87 61.79,61.46 61.39,59.43 C60.98,57.4 59.26,50.71 56.22,49.49 C53.18,48.27 49.64,48.77 47.13,50.21 C45.08,51.39 42.7,54.6 42.37,51.96 C42.23,50.85 46.82,46.6 46.82,46.6 C46.82,46.6 47.96,44.91 45.53,44.2 C43.1,43.49 38.57,45.94 37.45,46.55 C36.33,47.16 32.17,49.7 32.17,49.7 L12.49,74.95 C12.49,74.95 2.55,85.1 2.34,95.65 C2.13,106.2 8.8,114.34 21.79,112.72 C34.78,111.1 44.24,92.71 44.24,92.71 L29.22,85.71 C29.22,85.71 24.65,96.06 22.12,94.94 C19.59,93.82 22.73,86.93 22.73,86.93 L31.97,77.59 Z" fill="#B8885A"/>
  <path d="M99.64,86.72 L87.47,99.3 C87.47,99.3 94.2,114.93 108.2,114.63 C122.2,114.33 128.64,99.93 124.48,88.77 C120.32,77.61 108.47,65.11 108.47,65.11 L94.06,49.39 C94.06,49.39 87.01,41.98 82.65,43.2 C78.29,44.42 86.56,51.21 86.56,51.21 C86.56,51.21 85.44,53.29 83.41,52.28 C81.38,51.27 73.77,45.03 68.95,53.9 C64.69,61.75 70.73,65.62 70.73,65.62 L82.09,72.01 L95.08,77.39 L102.69,84.8 C102.69,84.8 106.55,92.92 106.34,93.63 C106.14,94.34 103.8,93.02 102.18,90.59 C100.56,88.16 99.64,86.72 99.64,86.72 Z" fill="#B8885A"/>
  <path d="M46.71,44.85 C46.22,44.45 46.61,46.79 44.55,47.97 C42.55,49.12 41.41,50.35 41.91,51.57 C42.94,54.08 42.79,51.28 44.65,50.14 C46.33,49.11 48.65,46.44 46.71,44.85 Z" fill="#855B53"/>
  <path d="M56.02,49.79 C56.58,50.8 61.3,53.14 59.95,59 C58.93,63.44 55.02,66.72 47.51,69.58 C39.9,72.47 29.4,75.14 23.35,82.36 C18.63,87.99 17.19,94.57 20.61,96.63 C22.85,97.98 20.8,93.78 22.47,89.74 C24.14,85.71 29.51,80.99 35.22,78.02 C40.93,75.05 56.03,71.78 60.06,65.54 C64.09,59.3 62.33,55.33 60.73,53.09 C58.68,50.2 55.3,48.49 56.02,49.79 Z" fill="#865B52"/>
  <path d="M81.03,44.54 C80.56,45.72 80.27,47.36 82.63,49.18 C84.99,51.01 85.18,51.84 84.8,52.3 C84.42,52.76 84.65,53.06 86.85,52.15 C89.06,51.24 85.82,48.88 84.99,47.97 C84.15,47.06 81.81,45.38 82.52,43.94 C83.22,42.49 81.33,43.78 81.03,44.54 Z" fill="#865B52"/>
  <path d="M73.11,50.4 C72.61,51.13 66.67,57.3 70.68,63.69 C73.55,68.27 78.29,69.19 83.08,70.56 C87.87,71.93 93.34,74.61 96.43,76.53 C101.15,79.46 103.2,82.52 105.52,85.89 C108.3,89.92 108.87,95.21 105.1,97.27 C103.49,98.15 105.12,93.99 104.87,92.25 C104.41,89.09 103.01,87.34 102.02,86.28 C101.03,85.21 97.68,80.92 92.89,78.33 C88.1,75.74 80.79,73.66 78.66,72.93 C74.93,71.64 70.11,69.28 67.98,64.1 C65.98,59.24 67.98,54.31 70.21,51.72 C71.6,50.12 74.41,48.5 73.11,50.4 Z" fill="#865B52"/>
</svg>
